austria/municipalities/70809.svg

<?xml version="1.0" encoding="UTF-8"?>
<!DOCTYPE svg PUBLIC "-//W3C//DTD SVG 1.1//EN" "http://www.w3.org/Graphics/SVG/1.1/DTD/svg11.dtd">
<svg xmlns="http://www.w3.org/2000/svg" version="1.1" width="166px" height="192px" style="shape-rendering:geometricPrecision; text-rendering:geometricPrecision; image-rendering:optimizeQuality; fill-rule:evenodd; clip-rule:evenodd" xmlns:xlink="http://www.w3.org/1999/xlink">
<g><path style="opacity:1" fill="#fdfdfd" d="M 164.5,-0.5 C 164.833,-0.5 165.167,-0.5 165.5,-0.5C 165.5,63.5 165.5,127.5 165.5,191.5C 140.167,191.5 114.833,191.5 89.5,191.5C 130.381,184.788 155.214,161.122 164,120.5C 164.5,80.168 164.667,39.8347 164.5,-0.5 Z"/></g>
<g><path style="opacity:1" fill="#0b0d0b" d="M -0.5,-0.5 C 54.5,-0.5 109.5,-0.5 164.5,-0.5C 164.667,39.8347 164.5,80.168 164,120.5C 155.214,161.122 130.381,184.788 89.5,191.5C 84.5,191.5 79.5,191.5 74.5,191.5C 31.8203,184.154 6.82027,159.154 -0.5,116.5C -0.5,77.5 -0.5,38.5 -0.5,-0.5 Z"/></g>
<g><path style="opacity:1" fill="#fdfdfd" d="M 41.5,3.5 C 41.6659,8.51108 41.4993,13.5111 41,18.5C 32,30.1667 23,41.8333 14,53.5C 4.37806,70.5404 3.04473,88.2071 10,106.5C 18.0857,119.006 26.4191,131.339 35,143.5C 37.8628,150.744 38.0295,158.077 35.5,165.5C 37.5,165.5 39.5,165.5 41.5,165.5C 41.8128,169.042 41.4794,172.375 40.5,175.5C 19.2048,161.594 7.03816,141.927 4,116.5C 3.50001,78.8348 3.33335,41.1681 3.5,3.5C 16.1667,3.5 28.8333,3.5 41.5,3.5 Z"/></g>
<g><path style="opacity:1" fill="#148432" d="M 43.5,165.5 C 45.924,165.808 48.2573,165.474 50.5,164.5C 48.5343,158.651 48.0343,152.651 49,146.5C 58.3943,132.769 67.3943,118.769 76,104.5C 83.3417,80.5418 78.675,59.2085 62,40.5C 54.8609,33.5369 48.6942,25.8702 43.5,17.5C 43.5,12.8333 43.5,8.16667 43.5,3.5C 56.1667,3.5 68.8333,3.5 81.5,3.5C 81.5,64.8333 81.5,126.167 81.5,187.5C 68.2499,187.414 55.9166,184.081 44.5,177.5C 43.5091,173.555 43.1758,169.555 43.5,165.5 Z"/></g>
<g><path style="opacity:1" fill="#908c89" d="M 83.5,3.5 C 83.5,64.5 83.5,125.5 83.5,186.5C 85.1667,186.5 86.8333,186.5 88.5,186.5C 86.7354,187.461 84.7354,187.795 82.5,187.5C 82.1676,125.998 82.5009,64.6644 83.5,3.5 Z"/></g>
<g><path style="opacity:1" fill="#fdfdfd" d="M 83.5,3.5 C 95.8333,3.5 108.167,3.5 120.5,3.5C 120.666,8.51108 120.499,13.5111 120,18.5C 117.333,22.5 114.667,26.5 112,30.5C 99.5485,41.7296 90.8818,55.3963 86,71.5C 83.4794,86.3916 85.8127,100.392 93,113.5C 100.827,123.819 108.161,134.486 115,145.5C 116.797,152.186 116.63,158.853 114.5,165.5C 116.5,165.5 118.5,165.5 120.5,165.5C 120.797,169.767 120.464,173.934 119.5,178C 109.794,183.176 99.4605,186.01 88.5,186.5C 86.8333,186.5 85.1667,186.5 83.5,186.5C 83.5,125.5 83.5,64.5 83.5,3.5 Z"/></g>
<g><path style="opacity:1" fill="#148432" d="M 122.5,3.5 C 135.167,3.5 147.833,3.5 160.5,3.5C 160.965,43.8676 160.465,84.2009 159,124.5C 154.409,146.583 142.576,163.583 123.5,175.5C 122.513,172.232 122.18,168.898 122.5,165.5C 124.924,165.808 127.257,165.474 129.5,164.5C 125.442,153.375 127.275,143.375 135,134.5C 142.659,125.188 149.326,115.188 155,104.5C 161.22,85.883 159.22,68.2163 149,51.5C 139.952,40.7873 131.286,29.7873 123,18.5C 122.501,13.5111 122.334,8.51108 122.5,3.5 Z"/></g>
<g><path style="opacity:1" fill="#1b5125" d="M 120.5,163.5 C 120.832,116.33 120.499,69.3304 119.5,22.5C 119.783,21.7109 120.283,21.0442 121,20.5C 121.832,68.3351 121.665,116.002 120.5,163.5 Z"/></g>
<g><path style="opacity:1" fill="#148432" d="M 119.5,22.5 C 120.499,69.3304 120.832,116.33 120.5,163.5C 119.022,163.762 117.689,163.429 116.5,162.5C 118.38,154.518 117.546,146.851 114,139.5C 105.343,128.858 97.6765,117.525 91,105.5C 83.4592,84.7465 86.1259,65.4132 99,47.5C 106.802,39.8742 113.635,31.5409 119.5,22.5 Z"/></g>
<g><path style="opacity:1" fill="#fefdfd" d="M 122.5,21.5 C 130.803,31.3111 138.969,41.3111 147,51.5C 158.901,71.4808 159.568,91.8142 149,112.5C 141.173,122.819 133.839,133.486 127,144.5C 125.216,150.777 125.049,157.111 126.5,163.5C 125.167,163.5 123.833,163.5 122.5,163.5C 122.5,116.167 122.5,68.8333 122.5,21.5 Z"/></g>
<g><path style="opacity:1" fill="#151614" d="M 41.5,3.5 C 42.1667,8.16667 42.8333,12.8333 43.5,17.5C 48.6942,25.8702 54.8609,33.5369 62,40.5C 78.675,59.2085 83.3417,80.5418 76,104.5C 67.3943,118.769 58.3943,132.769 49,146.5C 48.0343,152.651 48.5343,158.651 50.5,164.5C 48.2573,165.474 45.924,165.808 43.5,165.5C 42.8337,169.021 42.1671,172.687 41.5,176.5C 40.8933,176.376 40.56,176.043 40.5,175.5C 41.4794,172.375 41.8128,169.042 41.5,165.5C 39.5,165.5 37.5,165.5 35.5,165.5C 38.0295,158.077 37.8628,150.744 35,143.5C 26.4191,131.339 18.0857,119.006 10,106.5C 3.04473,88.2071 4.37806,70.5404 14,53.5C 23,41.8333 32,30.1667 41,18.5C 41.4993,13.5111 41.6659,8.51108 41.5,3.5 Z"/></g>
<g><path style="opacity:1" fill="#fefefd" d="M 43.5,21.5 C 51.7559,32.2675 60.2559,42.9342 69,53.5C 78.185,69.7538 79.8517,86.7538 74,104.5C 65,118.5 56,132.5 47,146.5C 46.3127,152.204 46.4793,157.87 47.5,163.5C 46.1667,163.5 44.8333,163.5 43.5,163.5C 43.5,116.167 43.5,68.8333 43.5,21.5 Z"/></g>
<g><path style="opacity:1" fill="#148432" d="M 40.5,22.5 C 41.4988,69.3304 41.8321,116.33 41.5,163.5C 40.1266,163.657 38.7932,163.49 37.5,163C 38.6406,157.25 38.8072,151.416 38,145.5C 37.3333,144.167 36.6667,142.833 36,141.5C 27.6094,130.108 19.6094,118.441 12,106.5C 4.88779,88.1811 6.22112,70.5145 16,53.5C 24.3808,43.2916 32.5475,32.9582 40.5,22.5 Z"/></g>
<g><path style="opacity:1" fill="#132715" d="M 40.5,22.5 C 40.56,21.9569 40.8933,21.6236 41.5,21.5C 42.831,68.9983 42.831,116.332 41.5,163.5C 41.8321,116.33 41.4988,69.3304 40.5,22.5 Z"/></g>
<g><path style="opacity:1" fill="#fdfdfd" d="M -0.5,116.5 C 6.82027,159.154 31.8203,184.154 74.5,191.5C 49.5,191.5 24.5,191.5 -0.5,191.5C -0.5,166.5 -0.5,141.5 -0.5,116.5 Z"/></g>
</svg>

<svg xmlns="http://www.w3.org/2000/svg" width="166" height="192" style="shape-rendering:geometricPrecision;text-rendering:geometricPrecision;image-rendering:optimizeQuality;fill-rule:evenodd;clip-rule:evenodd"><path style="opacity:1" fill="#fdfdfd" d="M164.5-.5h1v192h-76c40.881-6.712 65.714-30.378 74.5-71 .5-40.332.667-80.665.5-121z"/><path style="opacity:1" fill="#0b0d0b" d="M-.5-.5h165c.167 40.335 0 80.668-.5 121-8.786 40.622-33.619 64.288-74.5 71h-15c-42.68-7.346-67.68-32.346-75-75V-.5z"/><path style="opacity:1" fill="#fdfdfd" d="M41.5 3.5c.166 5.011 0 10.011-.5 15l-27 35c-9.622 17.04-10.955 34.707-4 53a1101.525 1101.525 0 0 0 25 37c2.863 7.244 3.03 14.577.5 22h6c.313 3.542-.02 6.875-1 10-21.295-13.906-33.462-33.573-36.5-59-.5-37.665-.667-75.332-.5-113h38z"/><path style="opacity:1" fill="#148432" d="M43.5 165.5a13.115 13.115 0 0 0 7-1c-1.966-5.849-2.466-11.849-1.5-18a870.992 870.992 0 0 0 27-42c7.342-23.958 2.675-45.291-14-64-7.14-6.963-13.306-14.63-18.5-23v-14h38v184c-13.25-.086-25.583-3.419-37-10a36.872 36.872 0 0 1-1-12z"/><path style="opacity:1" fill="#908c89" d="M83.5 3.5v183h5c-1.765.961-3.765 1.295-6 1a8464.6 8464.6 0 0 1 1-184z"/><path style="opacity:1" fill="#fdfdfd" d="M83.5 3.5h37a112.97 112.97 0 0 1-.5 15l-8 12c-12.451 11.23-21.118 24.896-26 41-2.52 14.892-.187 28.892 7 42a416.379 416.379 0 0 1 22 32c1.797 6.686 1.63 13.353-.5 20h6c.297 4.267-.036 8.434-1 12.5-9.706 5.176-20.04 8.01-31 8.5h-5V3.5z"/><path style="opacity:1" fill="#148432" d="M122.5 3.5h38c.465 40.368-.035 80.7-1.5 121-4.591 22.083-16.424 39.083-35.5 51a25.879 25.879 0 0 1-1-10 13.116 13.116 0 0 0 7-1c-4.058-11.125-2.225-21.125 5.5-30a179.895 179.895 0 0 0 20-30c6.22-18.617 4.22-36.284-6-53a616.784 616.784 0 0 1-26-33 112.97 112.97 0 0 1-.5-15z"/><path style="opacity:1" fill="#1b5125" d="M120.5 163.5c.332-47.17-.001-94.17-1-141 .283-.79.783-1.456 1.5-2a3411.7 3411.7 0 0 1-.5 143z"/><path style="opacity:1" fill="#148432" d="M119.5 22.5a4970.58 4970.58 0 0 1 1 141c-1.478.262-2.811-.071-4-1 1.88-7.982 1.046-15.649-2.5-23a232.996 232.996 0 0 1-23-34c-7.54-20.754-4.874-40.087 8-58 7.802-7.626 14.635-15.96 20.5-25z"/><path style="opacity:1" fill="#fefdfd" d="M122.5 21.5a1112.254 1112.254 0 0 1 24.5 30c11.901 19.98 12.568 40.314 2 61a416.379 416.379 0 0 0-22 32c-1.784 6.277-1.951 12.611-.5 19h-4v-142z"/><path style="opacity:1" fill="#151614" d="m41.5 3.5 2 14c5.194 8.37 11.36 16.037 18.5 23 16.675 18.709 21.342 40.042 14 64a870.992 870.992 0 0 1-27 42c-.966 6.151-.466 12.151 1.5 18a13.115 13.115 0 0 1-7 1 809.596 809.596 0 0 0-2 11c-.607-.124-.94-.457-1-1 .98-3.125 1.313-6.458 1-10h-6c2.53-7.423 2.363-14.756-.5-22a1101.525 1101.525 0 0 1-25-37c-6.955-18.293-5.622-35.96 4-53l27-35c.5-4.989.666-9.989.5-15z"/><path style="opacity:1" fill="#fefefd" d="M43.5 21.5a1099.755 1099.755 0 0 0 25.5 32c9.185 16.254 10.852 33.254 5 51l-27 42a56.723 56.723 0 0 0 .5 17h-4v-142z"/><path style="opacity:1" fill="#148432" d="M40.5 22.5c.999 46.83 1.332 93.83 1 141a8.43 8.43 0 0 1-4-.5c1.14-5.75 1.307-11.584.5-17.5l-2-4a628.963 628.963 0 0 1-24-35c-7.112-18.319-5.779-35.986 4-53a1060.183 1060.183 0 0 0 24.5-31z"/><path style="opacity:1" fill="#132715" d="M40.5 22.5c.06-.543.393-.876 1-1a2525.41 2525.41 0 0 1 0 142c.332-47.17-.001-94.17-1-141z"/><path style="opacity:1" fill="#fdfdfd" d="M-.5 116.5c7.32 42.654 32.32 67.654 75 75h-75v-75z"/></svg>
